static/assets/images/networks/cronos.svg

<svg xmlns="http://www.w3.org/2000/svg" fill="none" viewBox="0 0 512 512"><path fill="#002D74" d="M512 256a256 256 0 0 1-74.981 181.019 255.997 255.997 0 0 1-362.038 0A256 256 0 1 1 512 256"/><path fill="#fff" d="M256.58 64.512 81.92 160.544v192l174.66 95.968 174.524-95.968v-192zm122.816 259.583L256.58 391.614l-122.884-67.519V188.929L256.58 121.41l122.816 67.519z"/><path fill="#fff" d="m256.58 448.512 174.524-95.968v-192L256.58 64.512v56.963l122.816 67.518v135.166L256.58 391.614zM256.444 64.512 81.92 160.48v192l174.524 96.032v-56.963l-122.816-67.518V188.865l122.816-67.455z" style="mix-blend-mode:multiply"/><path fill="#fff" d="m338.029 301.374-81.517 44.798-81.584-44.798v-89.66l81.584-44.862 81.517 44.862-33.932 18.666-47.585-26.197-47.585 26.197v52.264l47.585 26.197 47.585-26.197z"/></svg>

<svg width="512" height="512" viewBox="0 0 512 512" fill="none" xmlns="http://www.w3.org/2000/svg">
<path d="M512 256C512 323.895 485.029 389.01 437.019 437.019C389.01 485.029 323.895 512 256 512C188.105 512 122.99 485.029 74.9807 437.019C26.9714 389.01 0 323.895 0 256C0 188.105 26.9714 122.99 74.9807 74.9807C122.99 26.9714 188.105 0 256 0C323.895 0 389.01 26.9714 437.019 74.9807C485.029 122.99 512 188.105 512 256Z" fill="#002D74"/>
<path d="M256.58 64.512L81.92 160.544V352.544L256.58 448.512L431.104 352.544V160.544L256.58 64.512ZM379.396 324.095L256.58 391.614L133.696 324.095V188.929L256.58 121.41L379.396 188.929V324.095Z" fill="white"/>
<path d="M256.58 448.512L431.104 352.544V160.544L256.58 64.512L256.58 121.475L379.396 188.993V324.159L256.58 391.614V448.512Z" fill="white" style="mix-blend-mode:multiply"/>
<path d="M256.444 64.512L81.92 160.48V352.48L256.444 448.512V391.549L133.628 324.031V188.865L256.444 121.41V64.512Z" fill="white" style="mix-blend-mode:multiply"/>
<path d="M338.029 301.374L256.512 346.172L174.928 301.374V211.714L256.512 166.852L338.029 211.714L304.097 230.38L256.512 204.183L208.927 230.38V282.644L256.512 308.841L304.097 282.644L338.029 301.374Z" fill="white"/>
</svg>
